module-11/build/images/share-svg/icon-pinterest.svg

<svg xmlns="http://www.w3.org/2000/svg" viewBox="0 0 21 26"><path d="M9.051 16.854c-.209.833-.42 1.706-.638 2.56-.215.842-.405 1.696-.718 2.47-.519 1.281-1.178 2.519-2.043 3.521-.575.667-.453.401-.626.365-.132-.028-.143-.157-.169-.345-.141-1.018-.045-2.195.007-3.339.06-1.304.334-2.388.589-3.471.484-2.064.946-4.087 1.435-6.164.032-.138.12-.366.09-.445-.222-.577-.366-1.095-.429-1.701a5.415 5.415 0 01.139-1.943c.277-1.058.913-1.995 1.894-2.338.624-.216 1.315-.118 1.735.132.432.259.729.667.867 1.246.148.615.039 1.351-.08 1.891-.267 1.219-.618 2.134-.937 3.31-.158.583-.337 1.182-.189 1.812.136.578.437.976.847 1.275.426.31.93.479 1.625.455 1.228-.043 2.081-.828 2.651-1.568.913-1.185 1.465-2.784 1.675-4.686.067-.614.117-1.319.07-2.014-.088-1.284-.489-2.317-1.127-3.117-.606-.763-1.466-1.369-2.512-1.711-1.037-.338-2.472-.451-3.747-.233-2.318.397-3.952 1.714-4.915 3.533a7.082 7.082 0 00-.837 3.41c0 1.051.259 1.865.678 2.5.133.201.328.367.458.597.185.326-.028.811-.119 1.164-.11.425-.122 1.012-.618 1.022-.206.004-.464-.146-.638-.243-1.305-.721-2.097-2.033-2.422-3.734a8.921 8.921 0 010-3.238 9.232 9.232 0 014.396-6.144C6.559 1.023 7.818.56 9.35.337a16.62 16.62 0 011.605-.132 9.65 9.65 0 014.326.81 8.839 8.839 0 012.98 2.146c.838.915 1.448 1.979 1.834 3.309.202.692.398 1.432.398 2.287 0 .858-.181 1.613-.308 2.368-.474 2.828-1.819 5.141-3.838 6.458a6.643 6.643 0 01-1.754.809c-.667.194-1.428.34-2.243.283a4.586 4.586 0 01-1.983-.577c-.54-.305-.994-.679-1.316-1.244z"/></svg>

<svg xmlns="http://www.w3.org/2000/svg" viewBox="0 0 21 26">
  <path d="M9.051,16.854 C8.842,17.687 8.631,18.560 8.413,19.414 C8.198,20.256 8.008,21.110 7.695,21.884 C7.176,23.165 6.517,24.403 5.652,25.405 C5.077,26.072 5.199,25.806 5.026,25.770 C4.894,25.742 4.883,25.613 4.857,25.425 C4.716,24.407 4.812,23.230 4.864,22.086 C4.924,20.782 5.198,19.698 5.453,18.615 C5.937,16.551 6.399,14.528 6.888,12.451 C6.920,12.313 7.008,12.085 6.978,12.006 C6.756,11.429 6.612,10.911 6.549,10.305 C6.476,9.610 6.532,8.961 6.688,8.362 C6.965,7.304 7.601,6.367 8.582,6.024 C9.206,5.808 9.897,5.906 10.317,6.156 C10.749,6.415 11.046,6.823 11.184,7.402 C11.332,8.017 11.223,8.753 11.104,9.293 C10.837,10.512 10.486,11.427 10.167,12.603 C10.009,13.186 9.830,13.785 9.978,14.415 C10.114,14.993 10.415,15.391 10.825,15.690 C11.251,16.000 11.755,16.169 12.450,16.145 C13.678,16.102 14.531,15.317 15.101,14.577 C16.014,13.392 16.566,11.793 16.776,9.891 C16.843,9.277 16.893,8.572 16.846,7.877 C16.758,6.593 16.357,5.560 15.719,4.760 C15.113,3.997 14.253,3.391 13.207,3.049 C12.170,2.711 10.735,2.598 9.460,2.816 C7.142,3.213 5.508,4.530 4.545,6.349 C4.041,7.301 3.708,8.396 3.708,9.759 C3.708,10.810 3.967,11.624 4.386,12.259 C4.519,12.460 4.714,12.626 4.844,12.856 C5.029,13.182 4.816,13.667 4.725,14.020 C4.615,14.445 4.603,15.032 4.107,15.042 C3.901,15.046 3.643,14.896 3.469,14.799 C2.164,14.078 1.372,12.766 1.047,11.065 C0.849,10.031 0.850,8.826 1.047,7.827 C1.237,6.860 1.591,5.969 1.984,5.246 C2.798,3.743 3.991,2.541 5.443,1.683 C6.559,1.023 7.818,0.560 9.350,0.337 C9.858,0.263 10.384,0.232 10.955,0.205 C12.623,0.127 14.139,0.505 15.281,1.015 C16.486,1.554 17.448,2.271 18.261,3.161 C19.099,4.076 19.709,5.140 20.095,6.470 C20.297,7.162 20.493,7.902 20.493,8.757 C20.493,9.615 20.312,10.370 20.185,11.125 C19.711,13.953 18.366,16.266 16.347,17.583 C15.858,17.901 15.266,18.196 14.593,18.392 C13.926,18.586 13.165,18.732 12.350,18.675 C11.559,18.621 10.911,18.406 10.367,18.098 C9.827,17.793 9.373,17.419 9.051,16.854 Z"/>
</svg>
